source/img/svg_inline/icon-video.svg

<svg xmlns="http://www.w3.org/2000/svg" viewBox="0 0 32 22"><path d="M26 10l6-4v16l-6-4zm-2 0v8a4 4 0 01-4 4H4a4 4 0 01-4-4v-8a4 4 0 014-4h10a2 2 0 012-2V2H5a1 1 0 010-2h12a1 1 0 011 1v3a2 2 0 012 2 4 4 0 014 4zm-12 0H4v8h8zm8 1a1 1 0 00-1-1h-4a1 1 0 000 2h4a1 1 0 001-1z" fill="#63d1bb"/></svg>

<svg xmlns="http://www.w3.org/2000/svg" viewBox="0 0 32 22">
<path d="M26,10l6-4V22l-6-4Zm-2,0v8a4,4,0,0,1-4,4H4a4,4,0,0,1-4-4V10A4,4,0,0,1,4,6H14a2,2,0,0,1,2-2V2H5A1,1,0,0,1,5,0H17a1,1,0,0,1,1,1V4a2,2,0,0,1,2,2A4,4,0,0,1,24,10ZM12,10H4v8h8Zm8,1a1,1,0,0,0-1-1H15a1,1,0,0,0,0,2h4A1,1,0,0,0,20,11Z" fill="#63d1bb"/>
</svg>
